assets/img/braze_icons/rss-02.svg

<svg fill="none" height="24" viewBox="0 0 24 24" width="24" xmlns="http://www.w3.org/2000/svg"><g clip-rule="evenodd" fill="#801ed7" fill-rule="evenodd"><path d="m2 19c0-1.6566 1.34337-3 3-3s3 1.3434 3 3c0 1.6567-1.34337 3-3 3s-3-1.3433-3-3z"/><path d="m8.51797 15.4814c-1.18364-1.1837-3.03729-1.8206-5.36904-1.47-.54615.0821-1.05545-.2941-1.13757-.8402-.08212-.5462.29405-1.0555.8402-1.1376 2.85322-.429 5.37738.3302 7.08069 2.0337 1.70325 1.7034 2.46245 4.2277 2.03405 7.0808-.082.5462-.5912.9225-1.1374.8405s-.92243-.5913-.84043-1.1374c.35013-2.3319-.28682-4.186-1.4705-5.3698z"/><path d="m12.0431 11.9569c-2.11662-2.11659-5.24866-3.28685-8.94511-2.9238-.54964.05398-1.03897-.34783-1.09296-.89747-.05398-.54964.34783-1.03897.89747-1.09296 4.24131-.41655 7.98.92524 10.5548 3.50003 2.5748 2.5748 3.9166 6.3135 3.5 10.5548-.054.5496-.5433.9514-1.0929.8975-.5497-.054-.9515-.5433-.8975-1.093.363-3.6964-.8072-6.8285-2.9238-8.9451z"/><path d="m19.9506 20.9273c.7342-10.0834-6.7944-17.61197-16.87774-16.87778-.55082.0401-1.02987-.37392-1.06998-.92474-.0401-.55083.37392-1.02988.92474-1.06998 11.29998-.82277 19.84048 7.71768 19.01768 19.0177-.0401.5508-.5191.9648-1.07.9247-.5508-.0401-.9648-.5191-.9247-1.0699z"/></g></svg>

<svg width="24" height="24" viewBox="0 0 24 24" fill="none" xmlns="http://www.w3.org/2000/svg">
<path fill-rule="evenodd" clip-rule="evenodd" d="M2 19C2 17.3434 3.34337 16 5 16C6.65663 16 8 17.3434 8 19C8 20.6567 6.65663 22 5 22C3.34337 22 2 20.6567 2 19Z" fill="#801ED7"/>
<path fill-rule="evenodd" clip-rule="evenodd" d="M8.51797 15.4814C7.33433 14.2977 5.48068 13.6608 3.14893 14.0114C2.60278 14.0935 2.09348 13.7173 2.01136 13.1712C1.92924 12.625 2.30541 12.1157 2.85156 12.0336C5.70478 11.6046 8.22894 12.3638 9.93225 14.0673C11.6355 15.7707 12.3947 18.295 11.9663 21.1481C11.8843 21.6943 11.3751 22.0706 10.8289 21.9886C10.2827 21.9066 9.90647 21.3973 9.98847 20.8512C10.3386 18.5193 9.70165 16.6652 8.51797 15.4814Z" fill="#801ED7"/>
<path fill-rule="evenodd" clip-rule="evenodd" d="M12.0431 11.9569C9.92648 9.84031 6.79444 8.67005 3.09799 9.0331C2.54835 9.08708 2.05902 8.68527 2.00503 8.13563C1.95105 7.58599 2.35286 7.09666 2.9025 7.04267C7.14381 6.62612 10.8825 7.96791 13.4573 10.5427C16.0321 13.1175 17.3739 16.8562 16.9573 21.0975C16.9033 21.6471 16.414 22.0489 15.8644 21.995C15.3147 21.941 14.9129 21.4517 14.9669 20.902C15.3299 17.2056 14.1597 14.0735 12.0431 11.9569Z" fill="#801ED7"/>
<path fill-rule="evenodd" clip-rule="evenodd" d="M19.9506 20.9273C20.6848 10.8439 13.1562 3.31533 3.07286 4.04952C2.52204 4.08962 2.04299 3.6756 2.00288 3.12478C1.96278 2.57395 2.3768 2.0949 2.92762 2.0548C14.2276 1.23203 22.7681 9.77248 21.9453 21.0725C21.9052 21.6233 21.4262 22.0373 20.8753 21.9972C20.3245 21.9571 19.9105 21.4781 19.9506 20.9273Z" fill="#801ED7"/>
</svg>
